communes/5591.svg

<?xml version="1.0" encoding="UTF-8" standalone="no"?>
<!-- Created with Inkscape (http://www.inkscape.org/) -->
<svg
   xmlns:dc="http://purl.org/dc/elements/1.1/"
   xmlns:cc="http://creativecommons.org/ns#"
   xmlns:rdf="http://www.w3.org/1999/02/22-rdf-syntax-ns#"
   xmlns:svg="http://www.w3.org/2000/svg"
   xmlns="http://www.w3.org/2000/svg"
   xmlns:xlink="http://www.w3.org/1999/xlink"
   xmlns:sodipodi="http://sodipodi.sourceforge.net/DTD/sodipodi-0.dtd"
   xmlns:inkscape="http://www.inkscape.org/namespaces/inkscape"
   width="500"
   height="627.35999"
   id="svg2"
   sodipodi:version="0.32"
   inkscape:version="0.46"
   version="1.0"
   sodipodi:docname="Wappen Renens.svg"
   inkscape:output_extension="org.inkscape.output.svg.inkscape">
  <defs
     id="defs4">
    <inkscape:perspective
       sodipodi:type="inkscape:persp3d"
       inkscape:vp_x="0 : 526.18109 : 1"
       inkscape:vp_y="0 : 1000 : 0"
       inkscape:vp_z="744.09448 : 526.18109 : 1"
       inkscape:persp3d-origin="372.04724 : 350.78739 : 1"
       id="perspective10" />
    <inkscape:perspective
       sodipodi:type="inkscape:persp3d"
       inkscape:vp_x="0 : 420.94501 : 1"
       inkscape:vp_y="0 : 1000 : 0"
       inkscape:vp_z="595.27502 : 420.94501 : 1"
       inkscape:persp3d-origin="297.63751 : 280.63 : 1"
       id="perspective2498" />
    <radialGradient
       r="300"
       fy="579.93323"
       fx="858.04236"
       cy="579.93323"
       cx="858.04236"
       gradientTransform="matrix(1.21503,0,0,1.26667,-839.192,-490.489)"
       gradientUnits="userSpaceOnUse"
       id="radialGradient3236"
       xlink:href="#linearGradient2893"
       inkscape:collect="always" />
    <linearGradient
       id="linearGradient2955">
      <stop
         id="stop2965"
         offset="0"
         style="stop-color: white; stop-opacity: 0;" />
      <stop
         id="stop2959"
         offset="1"
         style="stop-color: black; stop-opacity: 0.645833;" />
    </linearGradient>
    <linearGradient
       id="linearGradient2893">
      <stop
         id="stop2895"
         offset="0"
         style="stop-color: rgb(255, 255, 255); stop-opacity: 0.313726;" />
      <stop
         style="stop-color: rgb(255, 255, 255); stop-opacity: 0.25098;"
         offset="0.19"
         id="stop2897" />
      <stop
         id="stop2901"
         offset="0.60000002"
         style="stop-color: rgb(107, 107, 107); stop-opacity: 0.12549;" />
      <stop
         id="stop2899"
         offset="1"
         style="stop-color: rgb(0, 0, 0); stop-opacity: 0.12549;" />
    </linearGradient>
    <inkscape:perspective
       id="perspective28"
       inkscape:persp3d-origin="301.5 : 254.33333 : 1"
       inkscape:vp_z="603 : 381.5 : 1"
       inkscape:vp_y="0 : 1000 : 0"
       inkscape:vp_x="0 : 381.5 : 1"
       sodipodi:type="inkscape:persp3d" />
    <radialGradient
       inkscape:collect="always"
       xlink:href="#linearGradient2893"
       id="radialGradient2524"
       gradientUnits="userSpaceOnUse"
       gradientTransform="matrix(1.21503,0,0,1.26667,-839.192,-490.489)"
       cx="858.04236"
       cy="579.93323"
       fx="858.04236"
       fy="579.93323"
       r="300" />
    <radialGradient
       inkscape:collect="always"
       xlink:href="#linearGradient2893"
       id="radialGradient2527"
       gradientUnits="userSpaceOnUse"
       gradientTransform="matrix(1.21503,0,0,1.26667,-1383.5491,-648.19825)"
       cx="858.04236"
       cy="579.93323"
       fx="858.04236"
       fy="579.93323"
       r="300" />
  </defs>
  <sodipodi:namedview
     id="base"
     pagecolor="#ffffff"
     bordercolor="#666666"
     borderopacity="1.0"
     inkscape:pageopacity="0.0"
     inkscape:pageshadow="2"
     inkscape:zoom="0.35"
     inkscape:cx="8.5714286"
     inkscape:cy="520"
     inkscape:document-units="px"
     inkscape:current-layer="layer1"
     showgrid="false"
     inkscape:window-width="1280"
     inkscape:window-height="750"
     inkscape:window-x="-8"
     inkscape:window-y="-8" />
  <metadata
     id="metadata7">
    <rdf:RDF>
      <cc:Work
         rdf:about="">
        <dc:format>image/svg+xml</dc:format>
        <dc:type
           rdf:resource="http://purl.org/dc/dcmitype/StillImage" />
      </cc:Work>
    </rdf:RDF>
  </metadata>
  <g
     inkscape:label="Ebene 1"
     inkscape:groupmode="layer"
     id="layer1"
     transform="translate(544.35714,2.0724314)">
    <g
       id="g2534"
       transform="matrix(0.7960199,0,0,0.7960199,-101.03802,133.46567)">
      <path
         d="M -542.85714,-156.20925 L -542.85714,302.65975 C -542.85714,468.97075 -408.54314,603.79075 -242.85714,603.79075 C -77.16914,603.79075 57.14286,468.97075 57.14286,302.65975 L 57.14286,-156.20925 L -542.85714,-156.20925 z"
         id="path1899_10_"
         style="fill:#ffffff;display:inline" />
      <path
         d="M -542.85714,93.47875 L -542.85714,302.65975 C -542.85714,468.97075 -408.54314,603.79075 -242.85714,603.79075 C -77.16914,603.79075 57.14286,468.97075 57.14286,302.65975 L 57.14286,93.47875 L -542.85714,93.47875 z"
         id="path2472"
         style="fill:#e20909;display:inline" />
      <path
         style="fill:#ffffff"
         d="M -78.86614,264.63375 C -78.86614,206.14175 -49.23214,206.14175 -49.23214,147.64975 C -49.23214,121.27475 -55.25714,106.79375 -61.87514,93.47875 L -181.08114,93.47875 C -174.46414,106.79375 -168.43814,121.27475 -168.43814,147.64975 C -168.43814,206.14175 -198.07214,206.14175 -198.07214,264.63375 C -198.07214,323.12475 -168.43814,323.12475 -168.43814,381.61675 C -168.43814,440.10775 -198.07014,440.10775 -198.07014,498.59875 C -198.07014,549.19275 -175.90314,556.03175 -169.91614,594.80675 C -132.95814,585.53875 -98.71314,569.40375 -68.61314,547.80975 C -74.22214,535.73275 -78.86414,521.74675 -78.86414,498.59875 C -78.86414,440.10775 -49.23214,440.10775 -49.23214,381.61675 C -49.23214,323.12475 -78.86614,323.12475 -78.86614,264.63375 z M -300.28714,93.47875 L -419.49314,93.47875 C -412.87614,106.79375 -406.85014,121.27475 -406.85014,147.64975 C -406.85014,206.14175 -436.48414,206.14175 -436.48414,264.63375 C -436.48414,323.12475 -406.85014,323.12475 -406.85014,381.61675 C -406.85014,440.10775 -436.48214,440.10775 -436.48214,498.59875 C -436.48214,515.61275 -433.97314,527.67275 -430.41714,537.66775 C -390.25214,570.00675 -341.63314,592.20075 -288.40214,600.33975 C -293.02914,556.56175 -317.27614,551.50975 -317.27614,498.59875 C -317.27614,440.10775 -287.64414,440.10775 -287.64414,381.61675 C -287.64414,323.12475 -317.27814,323.12475 -317.27814,264.63375 C -317.27814,206.14175 -287.64414,206.14175 -287.64414,147.64975 C -287.64414,121.27475 -293.67014,106.79375 -300.28714,93.47875 z"
         id="path2487" />
      <path
         style="fill:none;stroke:#000000;stroke-width:3"
         d="M -68.61314,547.81075 C -74.22214,535.73375 -78.86414,521.74775 -78.86414,498.59975 C -78.86414,440.10875 -49.23214,440.10875 -49.23214,381.61775 C -49.23214,323.12575 -78.86614,323.12575 -78.86614,264.63475 C -78.86614,206.14275 -49.23214,206.14275 -49.23214,147.65075 C -49.23214,121.27575 -55.25714,106.79475 -61.87514,93.47975 M -181.08114,93.47875 C -174.46414,106.79375 -168.43814,121.27475 -168.43814,147.64975 C -168.43814,206.14175 -198.07214,206.14175 -198.07214,264.63375 C -198.07214,323.12475 -168.43814,323.12475 -168.43814,381.61675 C -168.43814,440.10775 -198.07014,440.10775 -198.07014,498.59875 C -198.07014,549.19275 -175.90314,556.03175 -169.91614,594.80675 M -288.40214,600.34075 C -293.02914,556.56275 -317.27614,551.51075 -317.27614,498.59975 C -317.27614,440.10875 -287.64414,440.10875 -287.64414,381.61775 C -287.64414,323.12575 -317.27814,323.12575 -317.27814,264.63475 C -317.27814,206.14275 -287.64414,206.14275 -287.64414,147.65075 C -287.64414,121.27575 -293.67014,106.79475 -300.28714,93.47975 M -419.49314,93.47875 C -412.87614,106.79375 -406.85014,121.27475 -406.85014,147.64975 C -406.85014,206.14175 -436.48414,206.14175 -436.48414,264.63375 C -436.48414,323.12475 -406.85014,323.12475 -406.85014,381.61675 C -406.85014,440.10775 -436.48214,440.10775 -436.48214,498.59875 C -436.48214,515.61275 -433.97314,527.67275 -430.41714,537.66775"
         id="path2489" />
      <line
         style="fill:none;stroke:#000000;stroke-width:3"
         id="line2484"
         x1="-542.85712"
         y1="93.478737"
         x2="57.141823"
         y2="93.478737" />
      <path
         style="fill:none;fill-opacity:1;stroke:#000000;stroke-width:3;stroke-miterlimit:4;stroke-dasharray:none;stroke-opacity:1"
         d="M -542.85714,-156.20925 L -542.85714,302.65869 C -542.85714,468.96929 -408.5426,603.79075 -242.85721,603.79075 C -77.17174,603.79075 57.14286,468.96929 57.14286,302.65869 L 57.14286,-156.20925 L -542.85714,-156.20925 z"
         id="path3239" />
    </g>
  </g>
</svg>

<?xml version="1.0" encoding="UTF-8"?>
<svg version="1.0" viewBox="0 0 500 627.36" xmlns="http://www.w3.org/2000/svg" xmlns:cc="http://creativecommons.org/ns#" xmlns:dc="http://purl.org/dc/elements/1.1/" xmlns:rdf="http://www.w3.org/1999/02/22-rdf-syntax-ns#" xmlns:xlink="http://www.w3.org/1999/xlink">
<metadata>
<rdf:RDF>
<cc:Work rdf:about="">
<dc:format>image/svg+xml</dc:format>
<dc:type rdf:resource="http://purl.org/dc/dcmitype/StillImage"/>
</cc:Work>
</rdf:RDF>
</metadata>
<g transform="translate(544.36 2.0724)">
<g transform="matrix(.79602 0 0 .79602 -101.04 133.47)">
<path d="m-542.86-156.21v458.87c0 166.31 134.31 301.13 300 301.13 165.69 0 300-134.82 300-301.13v-458.87h-600z" fill="#fff"/>
<path d="m-542.86 93.479v209.18c0 166.31 134.31 301.13 300 301.13 165.69 0 300-134.82 300-301.13v-209.18h-600z" fill="#e20909"/>
<path d="m-78.866 264.63c0-58.492 29.634-58.492 29.634-116.98 0-26.375-6.025-40.856-12.643-54.171h-119.21c6.617 13.315 12.643 27.796 12.643 54.171 0 58.492-29.634 58.492-29.634 116.98 0 58.491 29.634 58.491 29.634 116.98 0 58.491-29.632 58.491-29.632 116.98 0 50.594 22.167 57.433 28.154 96.208 36.958-9.268 71.203-25.403 101.3-46.997-5.609-12.077-10.251-26.063-10.251-49.211 0-58.491 29.632-58.491 29.632-116.98 0-58.492-29.634-58.492-29.634-116.98zm-221.42-171.16h-119.21c6.617 13.315 12.643 27.796 12.643 54.171 0 58.492-29.634 58.492-29.634 116.98 0 58.491 29.634 58.491 29.634 116.98 0 58.491-29.632 58.491-29.632 116.98 0 17.014 2.509 29.074 6.065 39.069 40.165 32.339 88.784 54.533 142.02 62.672-4.627-43.778-28.874-48.83-28.874-101.74 0-58.491 29.632-58.491 29.632-116.98 0-58.492-29.634-58.492-29.634-116.98 0-58.492 29.634-58.492 29.634-116.98 0-26.375-6.026-40.856-12.643-54.171z" fill="#fff"/>
<path d="m-68.613 547.81c-5.609-12.077-10.251-26.063-10.251-49.211 0-58.491 29.632-58.491 29.632-116.98 0-58.492-29.634-58.492-29.634-116.98 0-58.492 29.634-58.492 29.634-116.98 0-26.375-6.025-40.856-12.643-54.171m-119.21-1e-3c6.617 13.315 12.643 27.796 12.643 54.171 0 58.492-29.634 58.492-29.634 116.98 0 58.491 29.634 58.491 29.634 116.98 0 58.491-29.632 58.491-29.632 116.98 0 50.594 22.167 57.433 28.154 96.208m-118.49 5.534c-4.627-43.778-28.874-48.83-28.874-101.74 0-58.491 29.632-58.491 29.632-116.98 0-58.492-29.634-58.492-29.634-116.98 0-58.492 29.634-58.492 29.634-116.98 0-26.375-6.026-40.856-12.643-54.171m-119.21-1e-3c6.617 13.315 12.643 27.796 12.643 54.171 0 58.492-29.634 58.492-29.634 116.98 0 58.491 29.634 58.491 29.634 116.98 0 58.491-29.632 58.491-29.632 116.98 0 17.014 2.509 29.074 6.065 39.069" fill="none" stroke="#000" stroke-width="3"/>
<line x1="-542.86" x2="57.142" y1="93.479" y2="93.479" fill="none" stroke="#000" stroke-width="3"/>
<path d="m-542.86-156.21v458.87c0 166.31 134.31 301.13 300 301.13 165.69 0 300-134.82 300-301.13v-458.87h-600z" fill="none" stroke="#000" stroke-width="3"/>
</g>
</g>
</svg>
